src/assets/cards/0D.svg

<svg clip-rule="evenodd" fill-rule="evenodd" stroke-linejoin="round" stroke-miterlimit="2" viewBox="0 0 934 1300" xmlns="http://www.w3.org/2000/svg"><g fill="#d40000" fill-rule="nonzero"><path d="m138.427 239.184c41.333-40.342 68.479-84.322 94.445-126.621 22.768 46.539 55.433 87.257 90.77 126.621-37.808 39.025-67.099 80.772-90.657 124.651-26.117-44.983-53.613-85.714-94.558-124.651zm0 272.208c41.333-40.342 68.479-84.322 94.445-126.621 22.768 46.539 55.433 87.258 90.77 126.621-37.808 39.025-67.099 80.772-90.657 124.652-26.117-44.984-53.613-85.715-94.558-124.652zm0 278.73c41.333-40.339 68.479-84.322 94.445-126.619 22.768 46.541 55.433 87.258 90.77 126.619-37.808 39.035-67.099 80.776-90.657 124.657-26.117-44.982-53.613-85.715-94.558-124.657zm0 271.268c41.333-40.34 68.479-84.318 94.445-126.617 22.768 46.541 55.433 87.257 90.77 126.617-37.808 39.04-67.099 80.78-90.657 124.66-26.117-44.98-53.613-85.71-94.558-124.66zm234.087-679.027c41.333-40.342 68.491-84.322 94.445-126.621 22.768 46.539 55.445 87.257 90.782 126.621-37.808 39.025-67.111 80.772-90.669 124.651-26.104-44.983-53.601-85.714-94.558-124.651zm-1.944 534.75c41.333-40.339 68.478-84.322 94.445-126.619 22.767 46.541 55.445 87.258 90.782 126.619-37.808 39.035-67.111 80.776-90.669 124.657-26.117-44.983-53.602-85.715-94.558-124.657zm232.569-677.929c41.333-40.342 68.478-84.322 94.445-126.621 22.767 46.539 55.445 87.257 90.782 126.621-37.808 39.025-67.112 80.772-90.669 124.651-26.117-44.983-53.602-85.714-94.558-124.651zm0 272.208c41.333-40.342 68.478-84.322 94.445-126.621 22.767 46.539 55.445 87.258 90.782 126.621-37.808 39.025-67.112 80.772-90.669 124.652-26.117-44.984-53.602-85.715-94.558-124.652zm0 278.73c41.333-40.339 68.478-84.322 94.445-126.619 22.767 46.541 55.445 87.258 90.782 126.619-37.808 39.035-67.112 80.776-90.669 124.657-26.117-44.982-53.602-85.715-94.558-124.657zm0 271.268c41.333-40.34 68.478-84.318 94.445-126.617 22.767 46.541 55.445 87.257 90.782 126.617-37.808 39.04-67.112 80.78-90.669 124.66-26.117-44.98-53.602-85.71-94.558-124.66zm218.845-25.18c16.935-16.53 28.061-34.54 38.699-51.871 9.32 19.061 22.705 35.741 37.181 51.871-15.492 15.99-27.484 33.09-37.143 51.06-10.701-18.42-21.953-35.11-38.737-51.06zm-786.72-774.409c16.935-16.521 28.049-34.534 38.686-51.87 9.333 19.067 22.718 35.751 37.194 51.87-15.492 15.994-27.497 33.091-37.143 51.067-10.701-18.427-21.965-35.111-38.737-51.067zm-1.932-203.742h12.962v131.277h-12.962zm51.381 0c-12.481 0-22.516 11.201-22.516 25.1v81.086c0 13.899 10.035 25.101 22.516 25.101h7.263c12.482 0 22.53-11.202 22.53-25.101v-81.086c0-13.899-10.048-25.1-22.53-25.1zm3.751 12.418c7.363 0 13.297 5.57 13.297 12.507v82.177c0 6.937-5.934 12.519-13.297 12.519-7.376 0-13.297-5.582-13.297-12.519v-82.177c0-6.937 5.921-12.507 13.297-12.507z"/><path d="m899.874 1241.94h-12.962v-131.28h12.962zm-51.373 0c12.475 0 22.503-11.2 22.503-25.1v-81.09c0-13.9-10.028-25.09-22.503-25.09h-7.272c-12.475 0-22.522 11.19-22.522 25.09v81.09c0 13.9 10.047 25.1 22.522 25.1zm-3.756-12.41c-7.366 0-13.297-5.57-13.297-12.51v-82.18c0-6.93 5.931-12.52 13.297-12.52 7.372 0 13.297 5.59 13.297 12.52v82.18c0 6.94-5.925 12.51-13.297 12.51z"/></g></svg>

<?xml version="1.0" encoding="UTF-8" standalone="no"?>
<!DOCTYPE svg PUBLIC "-//W3C//DTD SVG 1.1//EN" "http://www.w3.org/Graphics/SVG/1.1/DTD/svg11.dtd">
<svg width="100%" height="100%" viewBox="0 0 934 1300" version="1.1" xmlns="http://www.w3.org/2000/svg" xmlns:xlink="http://www.w3.org/1999/xlink" xml:space="preserve" xmlns:serif="http://www.serif.com/" style="fill-rule:evenodd;clip-rule:evenodd;stroke-linejoin:round;stroke-miterlimit:2;">
    <g id="Layer2">
        <path d="M138.427,239.184C179.76,198.842 206.906,154.862 232.872,112.563C255.64,159.102 288.305,199.82 323.642,239.184C285.834,278.209 256.543,319.956 232.985,363.835C206.868,318.852 179.372,278.121 138.427,239.184ZM138.427,511.392C179.76,471.05 206.906,427.07 232.872,384.771C255.64,431.31 288.305,472.029 323.642,511.392C285.834,550.417 256.543,592.164 232.985,636.044C206.868,591.06 179.372,550.329 138.427,511.392ZM138.427,790.122C179.76,749.783 206.906,705.8 232.872,663.503C255.64,710.044 288.305,750.761 323.642,790.122C285.834,829.157 256.543,870.898 232.985,914.779C206.868,869.797 179.372,829.064 138.427,790.122ZM138.427,1061.39C179.76,1021.05 206.906,977.072 232.872,934.773C255.64,981.314 288.305,1022.03 323.642,1061.39C285.834,1100.43 256.543,1142.17 232.985,1186.05C206.868,1141.07 179.372,1100.34 138.427,1061.39L138.427,1061.39ZM372.514,382.363C413.847,342.021 441.005,298.041 466.959,255.742C489.727,302.281 522.404,342.999 557.741,382.363C519.933,421.388 490.63,463.135 467.072,507.014C440.968,462.031 413.471,421.3 372.514,382.363ZM370.57,917.113C411.903,876.774 439.048,832.791 465.015,790.494C487.782,837.035 520.46,877.752 555.797,917.113C517.989,956.148 488.686,997.889 465.128,1041.77C439.011,996.787 411.526,956.055 370.57,917.113ZM603.139,239.184C644.472,198.842 671.617,154.862 697.584,112.563C720.351,159.102 753.029,199.82 788.366,239.184C750.558,278.209 721.254,319.956 697.697,363.835C671.58,318.852 644.095,278.121 603.139,239.184ZM603.139,511.392C644.472,471.05 671.617,427.07 697.584,384.771C720.351,431.31 753.029,472.029 788.366,511.392C750.558,550.417 721.254,592.164 697.697,636.044C671.58,591.06 644.095,550.329 603.139,511.392ZM603.139,790.122C644.472,749.783 671.617,705.8 697.584,663.503C720.351,710.044 753.029,750.761 788.366,790.122C750.558,829.157 721.254,870.898 697.697,914.779C671.58,869.797 644.095,829.064 603.139,790.122ZM603.139,1061.39C644.472,1021.05 671.617,977.072 697.584,934.773C720.351,981.314 753.029,1022.03 788.366,1061.39C750.558,1100.43 721.254,1142.17 697.697,1186.05C671.58,1141.07 644.095,1100.34 603.139,1061.39L603.139,1061.39ZM821.984,1036.21C838.919,1019.68 850.045,1001.67 860.683,984.339C870.003,1003.4 883.388,1020.08 897.864,1036.21C882.372,1052.2 870.38,1069.3 860.721,1087.27C850.02,1068.85 838.768,1052.16 821.984,1036.21ZM35.264,261.801C52.199,245.28 63.313,227.267 73.95,209.931C83.283,228.998 96.668,245.682 111.144,261.801C95.652,277.795 83.647,294.892 74.001,312.868C63.3,294.441 52.036,277.757 35.264,261.801ZM33.332,58.059L46.294,58.059L46.294,189.336L33.332,189.336L33.332,58.059ZM84.713,58.059C72.232,58.059 62.197,69.26 62.197,83.159L62.197,164.245C62.197,178.144 72.232,189.346 84.713,189.346L91.976,189.346C104.458,189.346 114.506,178.144 114.506,164.245L114.506,83.159C114.506,69.26 104.458,58.059 91.976,58.059L84.713,58.059ZM88.464,70.477C95.827,70.477 101.761,76.047 101.761,82.984L101.761,165.161C101.761,172.098 95.827,177.68 88.464,177.68C81.088,177.68 75.167,172.098 75.167,165.161L75.167,82.984C75.167,76.047 81.088,70.477 88.464,70.477Z" style="fill:rgb(212,0,0);fill-rule:nonzero;"/>
        <path d="M899.874,1241.94L886.912,1241.94L886.912,1110.66L899.874,1110.66L899.874,1241.94ZM848.501,1241.94C860.976,1241.94 871.004,1230.74 871.004,1216.84L871.004,1135.75C871.004,1121.85 860.976,1110.66 848.501,1110.66L841.229,1110.66C828.754,1110.66 818.707,1121.85 818.707,1135.75L818.707,1216.84C818.707,1230.74 828.754,1241.94 841.229,1241.94L848.501,1241.94ZM844.745,1229.53C837.379,1229.53 831.448,1223.96 831.448,1217.02L831.448,1134.84C831.448,1127.91 837.379,1122.32 844.745,1122.32C852.117,1122.32 858.042,1127.91 858.042,1134.84L858.042,1217.02C858.042,1223.96 852.117,1229.53 844.745,1229.53Z" style="fill:rgb(212,0,0);fill-rule:nonzero;"/>
    </g>
</svg>
